Simply-Purple-Circles/scalable/apps/teamviewer.svg

<svg xmlns="http://www.w3.org/2000/svg" width="48" height="48" viewBox="0 0 12.7 12.7"><path d="M6.34.07a6.29 6.29 0 0 0-6.29 6.3 6.29 6.29 0 0 0 6.3 6.28 6.29 6.29 0 0 0 6.28-6.29A6.29 6.29 0 0 0 6.34.07zm-.01.94a5.4 5.4 0 0 1 5.4 5.4 5.4 5.4 0 0 1-5.4 5.41 5.4 5.4 0 0 1-5.41-5.4A5.4 5.4 0 0 1 6.32 1z" fill="#963996"/><path d="M6.33 1.38a4.97 4.97 0 0 0-4.97 4.98 4.97 4.97 0 0 0 4.98 4.96 4.97 4.97 0 0 0 4.96-4.97 4.97 4.97 0 0 0-4.97-4.97zm-.02.95a4.04 4.04 0 0 1 4.05 4.05 4.04 4.04 0 0 1-4.05 4.05 4.04 4.04 0 0 1-4.04-4.04A4.04 4.04 0 0 1 6.3 2.33zm.78 2.62v.7H5.61v-.68l-.89.7-.85.69.85.7.89.69v-.7h1.48v.7l.89-.7.85-.7-.85-.7-.89-.7z" fill="#04a" fill-opacity=".97" opacity=".75"/></svg>

<?xml version="1.0" encoding="UTF-8" standalone="no"?>
<svg
   xmlns:dc="http://purl.org/dc/elements/1.1/"
   xmlns:cc="http://creativecommons.org/ns#"
   xmlns:rdf="http://www.w3.org/1999/02/22-rdf-syntax-ns#"
   xmlns:svg="http://www.w3.org/2000/svg"
   xmlns="http://www.w3.org/2000/svg"
   xmlns:sodipodi="http://sodipodi.sourceforge.net/DTD/sodipodi-0.dtd"
   xmlns:inkscape="http://www.inkscape.org/namespaces/inkscape"
   width="48"
   height="48"
   viewBox="0 0 12.7 12.7"
   version="1.1"
   id="svg6"
   sodipodi:docname="teamviewer.svg"
   inkscape:version="0.92.4 (5da689c313, 2019-01-14)">
  <metadata
     id="metadata12">
    <rdf:RDF>
      <cc:Work
         rdf:about="">
        <dc:format>image/svg+xml</dc:format>
        <dc:type
           rdf:resource="http://purl.org/dc/dcmitype/StillImage" />
        <dc:title></dc:title>
      </cc:Work>
    </rdf:RDF>
  </metadata>
  <defs
     id="defs10" />
  <sodipodi:namedview
     pagecolor="#ffffff"
     bordercolor="#666666"
     borderopacity="1"
     objecttolerance="10"
     gridtolerance="10"
     guidetolerance="10"
     inkscape:pageopacity="0"
     inkscape:pageshadow="2"
     inkscape:window-width="1087"
     inkscape:window-height="480"
     id="namedview8"
     showgrid="false"
     inkscape:zoom="4.9166667"
     inkscape:cx="2.1355932"
     inkscape:cy="24"
     inkscape:window-x="0"
     inkscape:window-y="25"
     inkscape:window-maximized="0"
     inkscape:current-layer="svg6" />
  <path
     d="M 6.34,0.07 A 6.29,6.29 0 0 0 0.05,6.37 6.29,6.29 0 0 0 6.35,12.65 6.29,6.29 0 0 0 12.63,6.36 6.29,6.29 0 0 0 6.34,0.07 Z M 6.33,1.01 a 5.4,5.4 0 0 1 5.4,5.4 5.4,5.4 0 0 1 -5.4,5.41 A 5.4,5.4 0 0 1 0.92,6.42 5.4,5.4 0 0 1 6.32,1 Z"
     id="path2"
     inkscape:connector-curvature="0"
     style="fill:#963996" />
  <path
     d="M 6.33,1.38 A 4.97,4.97 0 0 0 1.36,6.36 4.97,4.97 0 0 0 6.34,11.32 4.97,4.97 0 0 0 11.3,6.35 4.97,4.97 0 0 0 6.33,1.38 Z M 6.31,2.33 A 4.04,4.04 0 0 1 10.36,6.38 4.04,4.04 0 0 1 6.31,10.43 4.04,4.04 0 0 1 2.27,6.39 4.04,4.04 0 0 1 6.3,2.33 Z m 0.78,2.62 v 0.7 H 5.61 V 4.97 l -0.89,0.7 -0.85,0.69 0.85,0.7 0.89,0.69 v -0.7 h 1.48 v 0.7 L 7.98,7.05 8.83,6.35 7.98,5.65 Z"
     id="path4"
     inkscape:connector-curvature="0"
     style="opacity:0.75;fill:#0044aa;fill-opacity:0.97000002" />
</svg>
